!!!OTL@@DE: Die Hussiten vor Naumburg
!!!ONB: Nach einer Ungar. Volksweise ('sist mir auf der Welt nichts lieber)
!!!OMD: Allegro
!!!LYR: Seyferth, Carl
!!!LDT: 1832
!!!OCL: Erk, Ludwig
!!!GCO: Deutscher Liederschatz, Band 1
**kern	**kern	**kern
*staff3	*staff2	*staff1
*Ipiano	*Ipiano	*Ivox
*>[A,B,B]	*>[A,B,B]	*>[A,B,B]
*>norep[A,B]	*>norep[A,B]	*>norep[A,B]
*>A	*>A	*>A
=1-	=1-	=1-
*clefF4	*clefG2	*clefG2
*k[f#]	*k[f#]	*k[f#]
*G:	*G:	*G:
*M2/4	*M2/4	*M2/4
*MM120	*MM120	*MM120
*^	*	*
8GG/L	4GG\	8B/ 8d/L	8d/
8D/	.	8B/ 8g/	8g/
*v	*v	*	*
8G/	8B/ 8g/	8g/
8D/J	8B/ 8g/J	8g/
=2	=2	=2
*^	*	*
8GG/L	4GG\	8B/ 8g/L	16g/
.	.	.	16g/
8D/	.	8B/ 8g/	8g/
*v	*v	*	*
8G/	8d/ 8b/	8b\
8D/J	8B/ 8g/J	8g/
=3	=3	=3
8DD/L	8d/ 8f#/ 8dd/L	8dd\
8D/	8f#/ 8a/	8a/
8F#/	8d/ 8a/	8a/
8C#/J	8e/ 8g/J	8g/
=4	=4	=4
8D/L	8d/ 8f#/L	8f#/
8C#/	8e/	8e/
8D/	8f#/	8f#/
8DD/J	8d/J	8d/
=5!|:	=5!|:	=5!|:
*>B	*>B	*>B
*^	*	*
8.Cn/L	4Cn\	8.g/ 8.cc/ 8.ee/L	8.ee\
16c/k	.	16e/ 16g/ 16cc/k	16cc\
*v	*v	*	*
8c/	8e/ 8g/ 8cc/	8cc\
8c/J	8e/ 8g/ 8cc/J	8cc\
=6	=6	=6
8c\L	8e/ 8g/ 8cc/L	8cc\
8C\J	8e/ 8g/ 8cc/J	8cc\
4C/	4g\ 4cc\ 4ee\	4ee\
=7	=7	=7
*^	*	*
8.GG/L	4GG\	8.g/ 8.b/ 8.dd/L	8.dd\
16G/k	.	16d/ 16g/ 16b/k	16b\
*v	*v	*	*
8G/	8d/ 8g/ 8b/	8b\
8G/J	8d/ 8g/ 8b/J	8b\
=8	=8	=8
8G/L	8d/ 8g/ 8b/L	8b\
8GG/J	8d/ 8g/ 8b/J	8b\
4GG/	4g/ 4b/ 4dd/	4dd\
=9	=9	=9
*^	*^	*
8.F#/L	4D\	8.a/L	4d\	8.a/
16G/Jk	.	16b/Jk	.	16b\
*	*	*v	*v	*
4ryy	8D\ 8A\L	8d/ 8cc/L	8cc\
.	8D\ 8A\J	8c/ 8d/ 8f#/J	8f#/
*v	*v	*	*
=10	=10	=10
4DD/ 4D/	4c/ 4d/ 4f#/ 4a/	4a/
8GG/	8B/ 8d/ 8g/	8g/
8r	8r	8r
==:|!	==:|!	==:|!
*-	*-	*-
!!!ENC: Craig Stuart Sapp
!!!END: 2004/06/28/
!!!EFL: 177/651
